custom_components/lucide_icons/data/icons/guitar.svg

<?xml version="1.0" encoding="UTF-8" standalone="no"?>
<svg xmlns="http://www.w3.org/2000/svg" xmlns:svg="http://www.w3.org/2000/svg" width="24" height="24" viewBox="0 0 24 24" fill="currentColor" tags="acoustic,instrument,strings,riff,rock,band,country,concert,performance,play,lead,loud,music,audio,sound,noise" categories="multimedia">
  <path d="m 15.707031,6.8789062 -4.513672,4.5136718 a 1,1 0 0 0 0,1.414063 1,1 0 0 0 1.414063,0 l 4.513672,-4.5136722 a 1,1 0 0 0 0,-1.4140626 1,1 0 0 0 -1.414063,0 z"/>
  <path style="baseline-shift:baseline;display:inline;overflow:visible;vector-effect:none;fill:#000000;stroke:none;stroke-linecap:butt;stroke-linejoin:miter;enable-background:accumulate;stop-color:#000000;stop-opacity:1;opacity:1" d="m 19.400391,1.0195312 c -0.507564,0 -1.015519,0.1891565 -1.400391,0.5664063 a 1.0001,1.0001 0 0 0 -0.0078,0.00781 L 16.878906,2.7070313 C 16.31653,3.2692379 16.00017,4.0329246 16,4.828125 v 1.34375 c -5.7e-5,0.2655788 -0.105148,0.519267 -0.292969,0.7070312 a 1.0001,1.0001 0 0 0 1.414063,1.4140626 C 17.308858,8.1051478 17.562546,8.0000567 17.828125,8 h 1.34375 c 0.7952,-1.698e-4 1.558887,-0.3165297 2.121094,-0.8789063 L 22.40625,6.0078125 A 1.0001,1.0001 0 0 0 22.414062,6 c 0.7545,-0.7697435 0.7545,-2.0310377 0,-2.8007812 a 1.0001,1.0001 0 0 0 -0.0078,-0.00586 L 20.806641,1.59375 a 1.0001,1.0001 0 0 0 -0.0059,-0.00781 C 20.415909,1.2086877 19.907955,1.0195312 19.400391,1.0195312 Z m -0.002,1.9960938 1.587891,1.5839844 -0.002,0.00195 -1.105469,1.1054687 C 19.691142,5.8948522 19.437454,5.9999433 19.171875,6 H 18 V 4.828125 c 5.7e-5,-0.2655788 0.105148,-0.519267 0.292969,-0.7070313 z" id="path2" stroke-width="0"/>
  <path style="baseline-shift:baseline;display:inline;overflow:visible;vector-effect:none;fill:#000000;stroke:none;stroke-linecap:butt;stroke-linejoin:miter;enable-background:accumulate;stop-color:#000000;stop-opacity:1;opacity:1" d="m 6,15 a 1,1 0 0 0 -0.7070313,0.292969 1,1 0 0 0 0,1.414062 l 2,2 a 1,1 0 0 0 1.4140626,0 1,1 0 0 0 0,-1.414062 l -2.0000001,-2 A 1,1 0 0 0 6,15 Z" id="path3" stroke-width="0"/>
  <path style="baseline-shift:baseline;display:inline;overflow:visible;vector-effect:none;fill:#000000;stroke:none;stroke-linecap:butt;stroke-linejoin:miter;enable-background:accumulate;stop-color:#000000;stop-opacity:1;opacity:1" d="M 11,7 C 9.3555556,7 7.9421129,8.0496172 7.2890625,9.4863281 a 1.0001,1.0001 0 0 0 -0.00195,0.00781 L 6.8867187,10.394531 a 1.0001,1.0001 0 0 0 -0.00391,0.0059 C 6.7252112,10.761648 6.3784594,10.993467 5.984375,11 H 6 c -2.7495791,0 -5,2.250421 -5,5 0,3.845455 3.1545455,7 7,7 2.749579,0 5,-2.250421 5,-5 v 0.01563 c 0.0065,-0.394084 0.238352,-0.740836 0.599609,-0.898438 a 1.0001,1.0001 0 0 0 0.0059,-0.0039 l 0.90039,-0.40039 a 1.0001,1.0001 0 0 0 0.0078,-0.002 C 15.950383,16.057887 17,14.644444 17,13 17,9.6761905 14.32381,7 11,7 Z m 0,2 c 2.27619,0 4,1.72381 4,4 0,0.755556 -0.551164,1.541722 -1.314453,1.888672 l 0.0078,-0.002 -0.892578,0.396484 c -4.75e-4,2.08e-4 -0.0015,-2.08e-4 -0.002,0 C 11.724918,15.752369 11.019426,16.812525 11,17.984375 A 1.0001,1.0001 0 0 0 11,18 c 0,1.668699 -1.3313011,3 -3,3 -2.7545455,0 -5,-2.245455 -5,-5 0,-1.668699 1.3313011,-3 3,-3 a 1.0001,1.0001 0 0 0 0.015625,0 c 1.1718501,-0.01943 2.2320065,-0.724918 2.7011719,-1.798828 l 0.3964844,-0.894531 -0.00195,0.0078 C 9.4582777,9.551164 10.244444,9 11,9 Z" id="path4" stroke-width="0"/>
  <g id="circle4" style="opacity:1" stroke-width="0">
    <path style="baseline-shift:baseline;display:inline;overflow:visible;vector-effect:none;fill:currentColor;stroke:none;stroke-linecap:butt;stroke-linejoin:miter;enable-background:accumulate;stop-color:#000000;stop-opacity:1" d="M 12,12.5 A 0.5,0.5 0 0 1 11.5,13 0.5,0.5 0 0 1 11,12.5 0.5,0.5 0 0 1 11.5,12 0.5,0.5 0 0 1 12,12.5 Z" id="path5"/>
    <path style="baseline-shift:baseline;display:inline;overflow:visible;vector-effect:none;fill:#000000;stroke:none;stroke-linecap:butt;stroke-linejoin:miter;enable-background:accumulate;stop-color:#000000;stop-opacity:1" d="M 11.5,11 C 10.683418,11 10,11.683418 10,12.5 10,13.316582 10.683418,14 11.5,14 12.316582,14 13,13.316582 13,12.5 13,11.683418 12.316582,11 11.5,11 Z m 0,1 C 11.764298,12 12,12.235702 12,12.5 12,12.764298 11.764298,13 11.5,13 11.235702,13 11,12.764298 11,12.5 11,12.235702 11.235702,12 11.5,12 Z" id="path6"/>
  </g>
</svg>

<?xml version="1.0" encoding="UTF-8" standalone="no"?>
<svg xmlns="http://www.w3.org/2000/svg" xmlns:svg="http://www.w3.org/2000/svg" width="24" height="24" viewBox="0 0 24 24" fill="currentColor" tags="acoustic,instrument,strings,riff,rock,band,country,concert,performance,play,lead,loud,music,audio,sound,noise" categories="multimedia">
  <path d="M 19.400391 1.0195312 C 18.892827 1.0195312 18.384872 1.2086877 18 1.5859375 A 1.0001 1.0001 0 0 0 17.992188 1.59375 L 16.878906 2.7070312 C 16.31653 3.2692378 16.00017 4.0329246 16 4.828125 L 16 6.171875 C 15.999943 6.4374388 15.894832 6.6911452 15.707031 6.8789062 L 14.472656 8.1132812 C 13.491133 7.4128184 12.291709 7 11 7 C 9.3864384 7.0004466 7.9251725 7.9764951 7.3066406 9.4667969 A 1.0001 1.0001 0 0 0 7.3066406 9.46875 L 6.9277344 10.384766 C 6.770973 10.760554 6.409127 11.000848 6.0019531 11 A 1.0001 1.0001 0 0 0 6 11 C 3.2504209 11 1 13.250421 1 16 C 1 19.854149 4.1458514 23 8 23 C 10.749579 23 13 20.749579 13 18 A 1.0001 1.0001 0 0 0 13 17.998047 C 12.999152 17.590873 13.239446 17.229027 13.615234 17.072266 L 14.53125 16.693359 A 1.0001 1.0001 0 0 0 14.533203 16.693359 C 16.023458 16.074874 16.999553 14.613562 17 13 C 17 11.708291 16.587182 10.508867 15.886719 9.5273438 L 17.121094 8.2929688 C 17.308855 8.1051678 17.562561 8.0000567 17.828125 8 L 19.171875 8 C 19.967075 7.9998302 20.730762 7.6834704 21.292969 7.1210938 L 22.40625 6.0078125 A 1.0001 1.0001 0 0 0 22.414062 6 C 23.168563 5.2302565 23.168563 3.9689622 22.414062 3.1992188 A 1.0001 1.0001 0 0 0 22.40625 3.1933594 L 20.806641 1.59375 A 1.0001 1.0001 0 0 0 20.800781 1.5859375 C 20.415949 1.2086852 19.907955 1.0195313 19.400391 1.0195312 z M 19.398438 3.015625 L 20.986328 4.5996094 L 20.984375 4.6015625 L 19.878906 5.7070312 C 19.691235 5.8948553 19.437454 5.9999433 19.171875 6 L 18 6 L 18 4.828125 C 18.000057 4.5625462 18.105148 4.308858 18.292969 4.1210938 L 19.398438 3.015625 z M 11 9 C 11.745142 9 12.440004 9.2007792 13.035156 9.5507812 L 11.193359 11.392578 A 1 1 0 0 0 11.193359 12.806641 A 1 1 0 0 0 12.607422 12.806641 L 14.449219 10.964844 C 14.799221 11.559996 15 12.254858 15 13 C 14.999776 13.811071 14.516692 14.534793 13.767578 14.845703 L 12.847656 15.226562 A 1.0001 1.0001 0 0 0 12.845703 15.226562 C 11.728967 15.692431 10.99748 16.791899 11 18.001953 C 10.998954 19.669731 9.6680432 21 8 21 C 5.2267316 21 3 18.773268 3 16 C 3 14.331957 4.3302689 13.001046 5.9980469 13 C 7.2081013 13.0025 8.3075682 12.27108 8.7734375 11.154297 A 1.0001 1.0001 0 0 0 8.7734375 11.152344 L 9.1542969 10.232422 C 9.4652074 9.4833084 10.188929 9.0002245 11 9 z M 6 15 A 1 1 0 0 0 5.2929688 15.292969 A 1 1 0 0 0 5.2929688 16.707031 L 7.2929688 18.707031 A 1 1 0 0 0 8.7070312 18.707031 A 1 1 0 0 0 8.7070312 17.292969 L 6.7070312 15.292969 A 1 1 0 0 0 6 15 z "/>
</svg>
